X:144
T:Jenny's Welcome to Charlie (reel) 
B:CRE2.261 (FÃÂÃÂÃÂÃÂ¡ilte ShinÃÂÃÂÃÂÃÂ©ad roimh Chathal)
F:file ID: cre.2/144jennys_w
N:This version is from Seamus Ennis. (In CRE line 5 is typeset backwards - not a big help when you're trying to transcribe a Seamus Ennis arrangement!)
L:1/8
M:C
R:reel
Q:180
K:D
D2DA AGEF|GEcE dEcE|DDDA AGEG|(3ABc AG EAD2|
"5"D2DA AGEF|GEE/D/E cEE/D/E|D2DA AGEG|AAAG EAD2|
"9"D2DA AGEF|GEcE dEcE|D2DA AGEG|c2cG EFGE|
"13"D3A AGEF|(3GFE cE dEcE|D2DA AGEG|(3AcA AG EADA||
%
"17"d3A ^dA=dA|c3A dAcA|d3A ^dA=dA|eaag e2dA|
"21"^dA=dA ^dA=dA|c2cA dAcA|GAcd (3gfe dc|(3AcA AG EFGE|
"25"faag fedf|efgf edcg|faag fedf|eaag e2dg|
"33"eaag fedf|efgf (3gfe dA|GAcd (3gfe dc|A2AG EFGE||
%
"37"d3e dcAB|cAdB cAGE|Addc Add2|eaag e2dA|
"42"^dA=de dcAB|=cAdB cAGE|D2 (3EFG A2GE|A2GA EF HD2||

%%%

